X:2138
T:The green gown 
T:Yn gooyn geayney 
C:James Connor, Stone Cutter 
C:Traditional
O:Isle of Man
Z:Clague collection
B:Kiaull Vannin #138 
M:6/8 
L:1/8
K:D 
A|dcB AFA|d3 A2F|G2E A2F|D3 D2D|A2A d2e|f2d e2f|d2d ABc|d3 d2D| 
A2A d2e|f2d e2f|d2d ABc|d3 d2F|GGA d2F|GGA d2F|G2E A2F|D3 D2|| 

